src/pos-icons/beaker-outline.svg

<svg height="24" viewBox="0 0 24 24" width="24" xmlns="http://www.w3.org/2000/svg"><path d="m3 3h18v2a2 2 0 0 0 -2 2v12a2 2 0 0 1 -2 2h-10a2 2 0 0 1 -2-2v-12a2 2 0 0 0 -2-2zm4 2v2h5v1h-5v1h3v1h-3v1h3v1h-3v1h5v1h-5v1h3v1h-3v3h10v-14z"/></svg>

<?xml version="1.0" encoding="UTF-8"?><!DOCTYPE svg PUBLIC "-//W3C//DTD SVG 1.1//EN" "http://www.w3.org/Graphics/SVG/1.1/DTD/svg11.dtd"><svg xmlns="http://www.w3.org/2000/svg" xmlns:xlink="http://www.w3.org/1999/xlink" version="1.1" id="mdi-beaker-outline" width="24" height="24" viewBox="0 0 24 24"><path d="M3,3H21V5A2,2 0 0,0 19,7V19A2,2 0 0,1 17,21H7A2,2 0 0,1 5,19V7A2,2 0 0,0 3,5V3M7,5V7H12V8H7V9H10V10H7V11H10V12H7V13H12V14H7V15H10V16H7V19H17V5H7Z" /></svg>
